src/assets/svg/icons/fa/nuevos/classic/light/gopuram classic light.svg

<svg xmlns="http://www.w3.org/2000/svg" viewBox="0 0 512 512"><!--! Font Awesome Pro 6.4.0 by @fontawesome - https://fontawesome.com License - https://fontawesome.com/license (Commercial License) Copyright 2023 Fonticons, Inc. --><path d="M112 0c8.8 0 16 7.2 16 16V32h64V16c0-8.8 7.2-16 16-16s16 7.2 16 16V32h64V16c0-8.8 7.2-16 16-16s16 7.2 16 16V32h64V16c0-8.8 7.2-16 16-16s16 7.2 16 16V32 64 80v48 2.7c18.6 6.6 32 24.4 32 45.3v48c0 .9 0 1.8-.1 2.7c18.7 6.6 32.1 24.4 32.1 45.3v80c0 .9 0 1.8-.1 2.7c18.7 6.6 32.1 24.4 32.1 45.3v64c0 26.5-21.5 48-48 48H320 288 224 192 48c-26.5 0-48-21.5-48-48V400c0-20.9 13.4-38.7 32.1-45.3c-.1-.9-.1-1.8-.1-2.7V272c0-20.9 13.4-38.8 32.1-45.3c-.1-.9-.1-1.8-.1-2.7V176c0-20.9 13.4-38.7 32-45.3V128 80 64 32 16c0-8.8 7.2-16 16-16zM224 480h64c0-17.7-14.3-32-32-32s-32 14.3-32 32zm96 0h64V384H352 304 272 240 208 160 128v96h64c0-35.3 28.7-64 64-64s64 28.7 64 64zM128 80v48H384V80 64H128V80zm-16 80c-8.8 0-16 7.2-16 16l0 48h64V160H128 112zm48 96v96h48V336c0-26.5 21.5-48 48-48s48 21.5 48 48v16h48V256H320 272 240 192 160zm112-48v16h48V160H192v64h48V208c0-8.8 7.2-16 16-16s16 7.2 16 16zm0 144V336c0-8.8-7.2-16-16-16s-16 7.2-16 16v16h32zM416 224V176c0-8.8-7.2-16-16-16H384 352v64h64zm0 32H384v96h64V272c0-8.8-7.2-16-16-16H416zm0 224h48c8.8 0 16-7.2 16-16V400c0-8.8-7.2-16-16-16H448 416v96zM128 256H96 80c-8.8 0-16 7.2-16 16v80h64V256zM96 384H64 48c-8.8 0-16 7.2-16 16v64c0 8.8 7.2 16 16 16H96V384z"/></svg>

<svg xmlns="http://www.w3.org/2000/svg" viewBox="0 0 512 512"><path d="M112 0C120.8 0 128 7.164 128 16V32H192V16C192 7.164 199.2 0 208 0C216.8 0 224 7.164 224 16V32H288V16C288 7.164 295.2 0 304 0C312.8 0 320 7.164 320 16V32H384V16C384 7.164 391.2 0 400 0C408.8 0 416 7.164 416 16V130.7C434.6 137.3 448 155.1 448 176V224C448 224.9 447.1 225.8 447.9 226.7C466.6 233.2 480 251.1 480 272V352C480 352.9 479.1 353.8 479.9 354.7C498.6 361.3 512 379.1 512 400V464C512 490.5 490.5 512 464 512H48C21.49 512 0 490.5 0 464V400C0 379.1 13.41 361.3 32.11 354.7C32.04 353.8 32 352.9 32 352V272C32 251.1 45.41 233.2 64.11 226.7C64.04 225.8 64 224.9 64 224V176C64 155.1 77.36 137.3 96 130.7V16C96 7.164 103.2 0 112 0zM224 480H288C288 462.3 273.7 448 256 448C238.3 448 224 462.3 224 480zM320 480H384V384H128V480H192C192 444.7 220.7 416 256 416C291.3 416 320 444.7 320 480zM128 128H384V64H128V128zM112 160C103.2 160 96 167.2 96 176V224H160V160H112zM160 352H208V336C208 309.5 229.5 288 256 288C282.5 288 304 309.5 304 336V352H352V256H160V352zM272 208V224H320V160H192V224H240V208C240 199.2 247.2 192 256 192C264.8 192 272 199.2 272 208zM272 352V336C272 327.2 264.8 320 256 320C247.2 320 240 327.2 240 336V352H272zM416 224V176C416 167.2 408.8 160 400 160H352V224H416zM384 256V352H448V272C448 263.2 440.8 256 432 256H384zM416 480H464C472.8 480 480 472.8 480 464V400C480 391.2 472.8 384 464 384H416V480zM80 256C71.16 256 64 263.2 64 272V352H128V256H80zM96 384H48C39.16 384 32 391.2 32 400V464C32 472.8 39.16 480 48 480H96V384z"/></svg>
